X:4167
L:1/8
M:4/4
K:D
|: f2 A2 f2 A2 | fgfe d2 ef | g2 B2 g2 B2 | gagf e2 de | f2 A2 f2 A2 | fgfe d2 ef | gfed cABc | 
 d2 f2 d4 :: A2 AB AGFE | DFAd f2 d2 | A2 ABAG FE | A,2 C2 E2 G2 | A2 AB AGFE | DFAd f2 ef | 
 gfed cABc | d2 f2 d4 :|

